X: 14
T: Blue River Dance
M:4/4
R:reel
C: Andy DeJarlis
L:1/8
Z:Alf 
K:C
ef|gage gag2|e4-efed|cdcA cdc2|G6EF|
G^FGA cBcd|e^de2 gage|d2g2 a2b2|g6ef|
gage gag2|e6c2|dedc dedc|A4-ABcA|
G2GA cBcd|e^de2 g3e|(3ded cA cd3|c6EF||
GAGF EGc2|e4 c3B|ABcB dcA2|G6EF|
GAGF EGc2|e4 c3B|ABcd ec3|d6EF|
GAGF EGc2|e4 c3B|ABcB dcA2|G4 G4|
A^GAB cBcd|eaab (3aba ge|agec Acd2|c8|
